!!!!SEGMENT: pl-wnifc--6434-n--002_stefani-jozef--polonaise.krn
!!!cenid: 18xx:3938
!!!COM: Stefani, Józef
!!!COM-rismID: pe30024097
!!!CDT: 1800/04/16-1876/03/19
!!!CNT: Polish
!!!OTL: Polonaise
!!!PDT:
!!!AGN:
!!!SMS-siglum: PL-Wnifc
!!!SMS-shelfmark: 6434/n
!!!SMS-shelfwork: 002 W
!!!SMS-variant:
!!!SMS-altvar:
!!!NIFC-rismSourceID: 1001010067
!!!NIFC-rismChildID: 1001010071
!!!NIFC-islandoraID: nifc:212712
!!!URL-pdf-islandora: https://repozytorium.nifc.pl/islandora/object/nifc:212712/datastream/PDF/view
!!!URL-scan: https://polish.musicsources.pl/pl/lokalizacje/galeria/druki-muzyczne/16853 @EN{Scan on Polish Music Sources Website} @PL{Skany w portalu Dziedzictwo Muzyki Polskiej w otwartym dostępie}
!!!ONB-nifc: UWAGA: Polonez 002 na str. 4-5
!!!AIN: 2 piano
!!!key: D
**kern	**kern	**dynam
*part2	*part1	*part1
*staff2	*staff1	*
*I"PIANOFORTE	*I"PIANOFORTE	*
*I'Pf	*I'Pf	*
*Ipiano	*Ipiano	*
*ICklav	*ICklav	*
*clefF4	*clefG2	*
*k[f#c#]	*k[f#c#]	*
*D:	*D:	*
*M3/4	*M3/4	*
=1	=1	=1
8.D\L 8.F# 8.A	8.b'/L 8.dd	f
16D\Jk 16F# 16A	(16a'/Jk	.
4D\ 4F# 4A	8a/L	.
.	16g#X/L	.
.	16a/JJ	.
4r	16b/LL	.
.	16a/	.
.	16g#/	.
.	16a/JJ)	.
=2	=2	=2
8.C#\L 8.E 8.A	8.ee'/L	.
16C#\Jk 16E 16A	16a'/Jk	.
4C#\ 4E 4A	(8a/L	.
.	16g#X/L	.
.	16a/JJ	.
4r	16b/LL	.
.	16a/	.
.	16g#/	.
.	16a/JJ)	.
=3	=3	=3
!	!	!LO:HP:t=cres
8.D\L 8.F# 8.A	8.ff#'\L	<
16D\Jk 16F# 16A	16dd'\Jk	.
4D\ 4F# 4A	(8dd'\L	.
.	16cc#X\L	.
.	16dd\JJ	.
4r	16ee\LL	.
.	16dd\	.
.	16cc#\	.
.	16dd\JJ)	.
=4	=4	=4
8.AA:/L 8.C#: 8.E: 8.A:	8.cc#\L 8.ee 8.aa	ff
16AA/Jk 16C# 16E 16A	16cc#\Jk 16ee 16aa	.
4AA/ 4C# 4E 4A	16cc#\LL 16ee 16aa	.
.	16a'\	.
.	16b'\	.
.	16cc#'\JJ	.
4r	16dd'\LL	.
.	16ee'\	.
.	16ff#'\	.
.	16gg'\JJ	.
*clefG2	*	*
==5	==5	==5
*tremolo	*	*
8d/L 8f#	16ff#'\LL 16aa	>
.	16ff#'\ 16aa	.
!	!LO:TX:b:i:t=sotto voce	!
8A/	16ff#'\ 16aa	.
.	16ff#'\JJ 16aa	.
8d/ 8f#	8ff#\L 8aa	]
8A/	8ee#X\J 8gg#X	.
8d/ 8f#	8ff#\L 8aa	.
8A/J	8een\J 8ggn	.
!LO:LB:g=original	!LO:LB:g=original	!
=6	=6	=6
8d/L 8f#	16dd'\LL 16ff#	>
.	16dd'\ 16ff#	.
8A/	16dd'\ 16ff#	.
.	16dd'\JJ 16ff#	.
8d/ 8f#	8dd\L 8ff#	]
8A/	8cc#\ 8ee	.
8d/ 8f#	8dd\ 8ff#	.
8A/J	8dd\J 8ff#	.
=7	=7	=7
8c#/L 8e 8g	16ee'\LL 16gg	>
.	16ee'\ 16gg	.
8A/	16ee'\ 16gg	.
.	16ee'\JJ 16gg	.
8c#/ 8e 8g	8ee\L 8gg	]
8A/	8dd#X\ 8ff#	.
8c#/ 8e 8g	8ee\ 8gg	] >
.	(8qgg/ 8qbb	.
8A/J	8ff#\J) 8aa	]
=8	=8	=8
8d/L 8f#	16ff#'\LL 16aa	>
.	16ff#'\ 16aa	.
8A/	16ff#'\ 16aa	.
.	16ff#'\JJ 16aa	.
8d/ 8f#	8ff#\L 8aa	]
8A/	8ee\J 8gg	.
8d/ 8f#	4dd\ 4ff#	.
8A/J	.	.
*clefF4	*	*
=9	=9	=9
8.D\L 8.F# 8.A	8.dd'\L 8.ddd	ff >
16D\Jk 16F# 16A	16dd'\Jk 16ddd	.
4D\ 4F# 4A	16dd'\LL 16ddd	]
.	16ccc#'\	.
.	16bb'\	.
.	16aa'\JJ	.
4r	16gg'\LL	.
.	16ff#'\	.
.	16ee'\	.
.	16dd'\JJ	.
=10	=10	=10
8.BB\L 8.D 8.F# 8.B	8.b\L 8.bb	>
16BB\Jk 16D 16F# 16B	16b\Jk 16bb	.
4BB\ 4D 4F# 4B	16b'\LL 16bb	]
.	16aa'\	.
.	16gg'\	.
.	16ff#'\JJ	.
4r	16ee'\LL	.
.	16dd'\	.
.	16cc#'\	.
.	16b'\JJ	.
=11	=11	=11
8C#/L 8E 8G	8a'\L	.
8AA/	16b'\L	.
.	16cc#'\JJ	.
8C#/ 8E 8G	(16dd\LL	.
.	16ee\)	.
8AA/	16ff#'\	.
.	16gg'\JJ	.
8C#/ 8E 8G	16gg#X\LL	.
.	16aa\	.
8AA/J	16ggn'\	.
.	16ee'\JJ	.
!LO:LB:g=original	!LO:LB:g=original	!
=12	=12	=12
8D\L 8F#	(16dd\LL	.
.	16a\)	.
8AA\J 8C# 8E 8G	16ff#\	.
.	16ee\JJ	.
8r	(4ee\	.
8AA\ 8C# 8G	.	.
4D\ 4F#	8dd\)	.
.	8r	.
=13:|!|:	=13:|!|:	=13:|!|:
16BB/LL	(16ff#\LL	.
16G/	16gg\)	.
16D/	16ff#'\	.
16F#/JJ	16ee#X'\JJ	.
*rep	*	*
16BB/LL	8.ff#\L	.
16G/	.	.
16D/	.	.
16F#/JJ	16bb\Jk	.
.	(16qqbb/LL	.
.	16qqccc#/JJ)	.
*Xrep	*	*
*rep	*	*
16BB/LL	8ddd\L	.
16G/	.	.
16D/	16ccc#\L	.
16F#/JJ	16bb\JJ	.
*Xrep	*	*
=14	=14	=14
16AA#X/LL	(16ccc#\LL	.
16F#/	16bb#X\)	.
16C#X/	16ccc#'\	.
16F#/JJ	16aa#X'\JJ	.
*rep	*	*
16AA#/LL	8.ff#\L	.
16F#/	.	.
16C#/	.	.
16F#/JJ	16gg\Jk	.
*Xrep	*	*
*rep	*	*
16AA#/LL	8ff#\L	.
16F#/	.	.
16C#/	8een\J	.
16F#/JJ	.	.
*Xrep	*	*
=15	=15	=15
16BB/LL	(16ee\LL	.
16F#/	16dd\)	.
16D/	16cc#'\	.
16F#/JJ	16dd'\JJ	.
*rep	*	*
16BB/LL	8.b\L	.
16F#/	.	.
16D/	.	.
16F#/JJ	16cc#\K	.
*Xrep	*	*
*rep	*	*
16BB/LL	8dd\	.
16F#/	.	.
16D/	8b\J	.
16F#/JJ	.	.
*Xrep	*	*
=16	=16	=16
16AA#X/LL	16cc#/LL	.
16F#/	16b#X/	.
16C#X/	16cc#/	.
16F#/JJ	16a#X/JJ	.
8AA#/L	4f#/	.
16FF#/L 16F#	.	.
16FF#/JJ 16F#	.	.
*Xtremolo	*	*
8FF#/L 8F#	4r	.
8FF#/J 8F#	.	.
*tremolo	*	*
=17	=17	=17
8C#/L 8E 8G	8a^\ 8gg	.
8AA/	4a\ 4gg	.
!	!LO:LB:g=original	!
8C#/ 8E 8G	.	.
8AA/J	16ee\LL	.
.	16dd\JJ	.
!LO:LB:g=original	!	!
8C#/L 8E 8G	16cc#\LL	.
.	16dd\	.
8AA/J	16bb\	.
.	16aa\JJ	.
=18	=18	=18
8D/L 8F#	16aa'\LL	.
.	(16ddd\	.
8AA/	16ccc#\	.
.	16ddd\JJ)	.
8D/ 8F#	4.aa\	.
8AA/	.	.
8D/ 8F#	.	.
8AA/J	8ff#\	.
=19	=19	=19
4AA/ 4C# 4E	8a'\L 8aa	.
.	(16gg\L	>
.	16ee\JJ)	]
4AA/ 4C# 4E	8a'\L 8aa	.
.	(16gg\L	>
.	16ee\JJ)	]
4AA/ 4D 4F#	8a'\L 8gg	.
.	(16ff#\L	>
.	16dd\JJ)	]
=20	=20	=20
4AA/ 4C# 4E	4a/	.
4AA:\ 4C#: 4E: 4A:	16cc#'^\LL 16ee 16aa	.
.	16a'\	.
.	16b'\	.
.	16cc#'\JJ	.
4r	16dd'\LL	.
.	16ee'\	.
.	16ff#'\	.
.	16gg'\JJ	.
!LO:LB:g=original	!LO:LB:g=original	!
=21:|!	=21:|!	=21:|!
*k[f#]	*k[f#]	*
*G:	*G:	*
!	!LO:TX:a:B:t=Trio.	!
!	!LO:TX:a:t=D.S.	!
8GG/L	4r	p
8G\J 8B 8d	.	.
8G\L 8B 8d	4r	.
8G\ 8B 8d	.	.
8G\ 8B 8d	8r	.
!	!LO:TX:a:i:t=Flauto	!
8G\J 8B 8d	8dd\	.
==22	==22	==22
!	!LO:TX:b:i:t=dol.	!
8G\L 8B 8d	4.ggT\	.
8G\ 8B 8d	.	.
8G\ 8B 8d	.	.
8G\ 8B 8d	16aa\LL	.
.	16bb\JJ	.
8G\ 8B 8d	8aa\L	.
8G\J 8B 8d	8gg\J	.
=23	=23	=23
8FF#/L	[4aa\	.
8F#\J 8A 8c 8d	.	.
8F#\L 8A 8c 8d	16aa\LL]	.
.	16gg\	.
8F#\ 8A 8c 8d	16ff#\	.
.	16ee\JJ	.
8F#\ 8A 8c 8d	4dd\	.
8F#\J 8A 8c 8d	.	.
=24	=24	=24
8F#\L 8A 8c 8d	4.aaT\	.
8F#\ 8A 8c 8d	.	.
8F#\ 8A 8c 8d	.	.
8F#\ 8A 8c 8d	16bb\LL	.
.	16ccc\JJ	.
8F#\ 8A 8c 8d	8bb\L	.
8F#\J 8A 8c 8d	8aa\J	.
=25	=25	=25
8GG/L	[4bb\	.
8G\J 8B 8d	.	.
8G\L 8B 8d	16bb\LL]	.
.	16aa\	.
8G\ 8B 8d	16gg\	.
.	16ff#\JJ	.
8G\ 8B 8d	8gg\L	.
8G\J 8B 8d	8gg\J	.
=26	=26	=26
8EE\L 8E	[4bb\	.
8E\J 8G 8B	.	.
!	!LO:TUP:a:problem:klamra łukowa	!
8E\L 8G 8B	(12bb\L]	.
.	12aa\	.
8E\ 8G 8B	.	.
.	12gg\J)	.
!	!LO:TUP:a:problem:klamra łukowa	!
8E\ 8G 8B	(12gg\L	.
.	12ff#\	.
8E\J 8G 8B	.	.
.	12gg\J)	.
=27	=27	=27
8C\L 8E 8G	4ccc\	.
8C\J 8E 8A	.	.
!	!LO:TUP:a:problem:klamra łukowa	!
8C\L 8E 8A	(12ccc\L	.
.	12bb\	.
8C\ 8E 8A	.	.
.	12aa\J)	.
!	!LO:TUP:a:problem:klamra łukowa	!
8C\ 8E 8A	(12aa\L	.
.	12gg#X\	.
8C\J 8E 8A	.	.
.	12aa#X\J)	.
!LO:LB:g=original	!LO:LB:g=original	!
=28	=28	=28
8D\L 8F# 8A	[4eee\	.
8D\J 8F# 8A 8c	.	.
!	!LO:TUP:a:problem:klamra łukowa	!
8D\L 8F# 8A 8c	(12eee\L]	.
.	12ddd\	.
8D\ 8F# 8A 8c	.	.
.	12ccc\J)	.
!	!LO:TUP:a:problem:klamra łukowa	!
8D\ 8F# 8A 8c	(12ccc\L	.
.	12bb\	.
8D\J 8F# 8A 8c	.	.
.	12aa\J)	.
=29	=29	=29
8G\L 8B	16gg\LL	.
.	16dd\	.
8D\J 8F# 8A 8c	16bb\	.
.	16aa\JJ	.
8r	4aa\	.
8D\ 8F# 8A 8c	.	.
4G\ 4B	8gg\	.
.	8r	.
=30:|!|:	=30:|!|:	=30:|!|:
!	!LO:TX:a:i:t=Viol tutti	!
*Xtremolo	*	*
16E\LL 16G 16B	16ee'\LL	f
16E\ 16G 16B	16ee'\	.
16E\ 16G 16B	16ee'\	.
16E\JJ 16G 16B	16ee'\JJ	.
*tremolo	*	*
8E\L 8G 8B	(16ee\LL	.
.	16dd#X\)	.
8E\ 8G 8B	16ee'\	.
.	16ff#'\JJ	.
8E\ 8G 8B	(16gg\LL	.
.	16ff#\)	.
8E\J 8G 8B	16gg'\	.
.	16ee'\JJ	.
=31	=31	=31
(8D#X'\L 8F# 8A 8B	(16ff#\LL	.
.	16gg\)	.
8D#'\ 8F# 8A 8B	16ff#\	.
.	16ee\JJ	.
8D#'\ 8F# 8A 8B	(16dd#X\LL	.
.	16ee\)	.
8D#'\ 8F# 8A 8B	16dd#\	.
.	16cc\JJ	.
8D#'\ 8F# 8A 8B	8b\L	.
8D#'\J) 8F# 8A 8B	8b\J	.
=32	=32	=32
16D#X'\LL 16F# 16A 16B	16ff#'\LL	.
16D#'\ 16F# 16A 16B	16ff#'\	.
16D#'\ 16F# 16A 16B	16ff#'\	.
16D#'\JJ 16F# 16A 16B	16ff#'\JJ	.
8D#\L 8F# 8A 8B	(16ff#\LL	.
.	16ee#X\)	.
8D#\ 8F# 8A 8B	16ff#'\	.
.	16gg'\JJ	.
8D#\ 8F# 8A 8B	(16aa\LL	.
.	16gg\)	.
8D#\J 8F# 8A 8B	16aa\	.
.	16ff#\JJ	.
!LO:LB:g=original	!LO:LB:g=original	!
=33	=33	=33
(8E'\L 8G 8B	(16gg\LL	.
.	16aa\)	.
8E'\ 8G 8B	16bb\	.
.	16aa\JJ	.
8E'\ 8G 8B	(16gg\LL	.
.	16ff#\)	.
8E'\ 8G 8B	16gg\	.
.	16ff#\JJ	.
8E'\ 8G 8B	8ee\L	.
8E'\J) 8G 8B	8ee\J	.
=34	=34	=34
*	*tremolo	*
8D'\L	16ff#'\LL 16aa 16ccc	ff >
.	16ff#'\ 16aa 16ccc	.
16F#'\L	16ff#'\ 16aa 16ccc	.
16A'\JJ	16ff#'\JJ 16aa 16ccc	]
8c\L	4ff#\ 4aa 4ccc	.
16D\L 16A	.	.
16D\JJ 16A	.	.
8D\L 8A	4r	.
8D\J 8A	.	.
=35	=35	=35
8D'\L	16ff#'\LL 16aa 16ccc	>
.	16ff#'\ 16aa 16ccc	.
16F#'\L	16ff#'\ 16aa 16ccc	.
16A'\JJ	16ff#'\JJ 16aa 16ccc	]
8c\L	4ff#\ 4aa 4ccc	.
16D\L 16A	.	.
16D\JJ 16A	.	.
8D\L 8A	4r	.
8D\J 8A	.	.
=36	=36	=36
8D\ 8F# 8A 8c	8ff#'\L 8aa 8ccc	.
8r	(16ff#\L 16aa	>
.	16gg\JJ) 16bb	]
8D\ 8F# 8A 8c	8aa'\L 8ccc	.
8r	(16ff#\L 16aa	>
.	16gg\JJ) 16bb	]
8D\ 8F# 8A 8c	8aa'\L 8ccc	.
8r	(16ff#\L 16aa	>
.	16gg\JJ) 16bb	]
=37	=37	=37
8.D\L 8.F# 8.A 8.c	8aa'\L 8ccc	.
.	(32ccc\LL	>
.	32bb\	.
16D\Jk 16F# 16A 16c	32aa\	.
.	32gg\JJJ)	]
!	!LO:TX:a:i:t=Flauto	!
8D\ 8F# 8A 8c	16ff#'\LL	.
!	!LO:TX:b:i:t=ralen	!
.	16dd'\	.
8r	16cc#X'\	.
.	16dd'\JJ	.
4r	16dd#X'^\LL	.
.	16ee'^\	.
.	16ee#X'^\	.
.	16ff#'^\JJ	.
=:|=	=:|=	=:|=
*-	*-	*-
!!!system-decoration: [(s1,s2)]
!!!ENC: Solarz Mateusz
!!!END: 2022-07-28
!!!ENC: Julita Ruszuk
!!!END: 2022-08-25
!!!YEC: Copyright 2022 Narodowy Instytut Fryderyka Chopina (https://polishscores.org)
!!!YEM: License CC-BY-4.0 (https://creativecommons.org/licenses/by/4.0)
